icons/lines/educare--ekt-.svg

<svg xmlns="http://www.w3.org/2000/svg" width="24" height="24" viewBox="0 0 24 24" fill="none" stroke="currentColor" stroke-width="2" stroke-linecap="round" stroke-linejoin="round" >
  <path d="M8.50014 5.10001L11.2001 7.80001C11.6001 8.20001 12.4001 8.20001 12.8001 7.80001L15.5001 5.10001C16.2001 4.40001 15.7001 3.10001 14.7001 3.10001H9.30014C8.30014 3.20001 7.80014 4.40001 8.50014 5.10001Z" stroke-miterlimit="10"/>
  <path d="M8.50014 18.9L11.2001 16.2C11.6001 15.8 12.4001 15.8 12.8001 16.2L15.5001 18.9C16.2001 19.6 15.7001 20.9 14.7001 20.9H9.30014C8.30014 20.8 7.80014 19.6 8.50014 18.9Z" stroke-miterlimit="10"/>
  <path d="M2.19961 11.5L4.39961 8C4.69961 7.4 5.49961 7.3 5.99961 7.8L9.49961 11.3C9.89961 11.7 9.89961 12.3 9.49961 12.7L5.99961 16.2C5.49961 16.7 4.79961 16.6 4.39961 16L2.19961 12.5C1.89961 12.2 1.89961 11.8 2.19961 11.5Z" stroke-miterlimit="10"/>
  <path d="M21.8002 11.5L19.6002 8.00001C19.3002 7.50001 18.5002 7.40001 18.0002 7.80001L14.5002 11.3C14.1002 11.7 14.1002 12.3 14.5002 12.7L18.0002 16.2C18.5002 16.7 19.2002 16.6 19.6002 16L21.8002 12.5C22.1002 12.2 22.1002 11.8 21.8002 11.5Z" stroke-miterlimit="10"/>
  </svg>

<svg xmlns="http://www.w3.org/2000/svg" width="24" height="24" viewBox="0 0 24 24" fill="none" stroke="currentColor" stroke-width="2" stroke-linecap="round" stroke-linejoin="round">
  <path d="M11.2 16.2c.4-.4 1.2-.4 1.6 0l2.7 2.7c.7.7.2 2-.8 2H9.3c-1-.1-1.5-1.3-.8-2z" />
  <path d="M11.2 7.8c.4.4 1.2.4 1.6 0l2.7-2.7c.7-.7.2-2-.8-2H9.3c-1 .1-1.5 1.3-.8 2z" />
  <path d="M19.6 8c-.3-.5-1.1-.6-1.6-.2l-3.5 3.5a1 1 0 0 0 0 1.4l3.5 3.5c.5.5 1.2.4 1.6-.2l2.2-3.5a.707.707 0 0 0 0-1z" />
  <path d="M4.4 8c.3-.6 1.1-.7 1.6-.2l3.5 3.5a1 1 0 0 1 0 1.4L6 16.2c-.5.5-1.2.4-1.6-.2l-2.2-3.5a.707.707 0 0 1 0-1z" />
</svg>
